!!! OTL: Berkowitz431
!!! Chapter: 1
!!! Section: IV
!!! Page: 107
!!! Mode: 
!!! Encoder: DJB
**kern
*staff1
*I"Piano
=1-
*clefF4
*k[b-e-a-]
*c:
*M4/4
4C/
4G\
4A-\
4BBn/
=2
4G\
4BB-/
4.F\
8AAn/
=3
4AA-/
4F\
4E-\
4GG/
=4
2FF#/
4GG/
8r
8C/
=5
4En\
4G\
4B-\
4C/
=6
4An\
4C/
4.A-\
8C/
=7
4BBn/
4A-\
4G\
8C/L
8D/J
=8
4E-\
4BBn/
4C/
4r
==
*-
